packages/react/src/components/base/Icon/assets/icon-stack-minus.svg

<svg width="24" height="24" viewBox="0 0 24 24" xmlns="http://www.w3.org/2000/svg" fill="currentColor"> <path d="M22.3125 18.7497C22.3125 19.0481 22.194 19.3343 21.983 19.5452C21.772 19.7562 21.4859 19.8747 21.1875 19.8747H17.4375C17.1391 19.8747 16.853 19.7562 16.642 19.5452C16.431 19.3343 16.3125 19.0481 16.3125 18.7497C16.3125 18.4514 16.431 18.1652 16.642 17.9543C16.853 17.7433 17.1391 17.6247 17.4375 17.6247H21.1875C21.4859 17.6247 21.772 17.7433 21.983 17.9543C22.194 18.1652 22.3125 18.4514 22.3125 18.7497ZM20.25 11.0276L11.8125 15.9476L3.37969 11.0276C3.12258 10.8895 2.82189 10.8568 2.54109 10.9363C2.2603 11.0158 2.02139 11.2012 1.87478 11.4536C1.72818 11.7059 1.68536 12.0053 1.75537 12.2886C1.82538 12.5719 2.00274 12.8169 2.25 12.9719L11.25 18.2219C11.4221 18.3224 11.6179 18.3754 11.8172 18.3754C12.0165 18.3754 12.2122 18.3224 12.3844 18.2219L21.3844 12.9719C21.512 12.8975 21.6238 12.7985 21.7132 12.6809C21.8027 12.5632 21.8681 12.4291 21.9057 12.2861C21.9433 12.1432 21.9524 11.9942 21.9324 11.8478C21.9125 11.7013 21.8639 11.5602 21.7894 11.4326C21.7149 11.3049 21.616 11.1931 21.4983 11.1037C21.3806 11.0142 21.2465 10.9489 21.1036 10.9112C20.9606 10.8736 20.8117 10.8646 20.6652 10.8845C20.5188 10.9045 20.3777 10.9531 20.25 11.0276ZM1.6875 7.49975C1.68787 7.30262 1.74002 7.10906 1.83874 6.93843C1.93746 6.76781 2.07929 6.62612 2.25 6.52756L11.25 1.27756C11.4223 1.17763 11.618 1.125 11.8172 1.125C12.0164 1.125 12.2121 1.17763 12.3844 1.27756L21.3844 6.52756C21.5544 6.62658 21.6955 6.76846 21.7936 6.93905C21.8917 7.10964 21.9433 7.30298 21.9433 7.49975C21.9433 7.69652 21.8917 7.88985 21.7936 8.06044C21.6955 8.23103 21.5544 8.37292 21.3844 8.47194L12.3844 13.7219C12.2122 13.8224 12.0165 13.8754 11.8172 13.8754C11.6179 13.8754 11.4221 13.8224 11.25 13.7219L2.25 8.47194C2.07929 8.37337 1.93746 8.23169 1.83874 8.06106C1.74002 7.89044 1.68787 7.69687 1.6875 7.49975ZM5.04562 7.49975L11.8125 11.4476L18.5794 7.49975L11.8125 3.55193L5.04562 7.49975ZM12.75 19.9029L11.8125 20.4476L3.37969 15.5276C3.12258 15.3895 2.82189 15.3568 2.54109 15.4363C2.2603 15.5158 2.02139 15.7012 1.87478 15.9536C1.72818 16.2059 1.68536 16.5053 1.75537 16.7886C1.82538 17.0719 2.00274 17.3169 2.25 17.4719L11.25 22.7219C11.4221 22.8224 11.6179 22.8754 11.8172 22.8754C12.0165 22.8754 12.2122 22.8224 12.3844 22.7219L13.8844 21.8463C14.012 21.7718 14.1237 21.6729 14.2131 21.5553C14.3025 21.4376 14.3678 21.3035 14.4054 21.1606C14.4429 21.0177 14.452 20.8688 14.432 20.7224C14.412 20.576 14.3634 20.435 14.2889 20.3074C14.2144 20.1798 14.1155 20.0681 13.9979 19.9787C13.8802 19.8893 13.7461 19.824 13.6032 19.7864C13.4603 19.7489 13.3114 19.7398 13.165 19.7598C13.0186 19.7798 12.8776 19.8284 12.75 19.9029Z"/> </svg>

<svg viewBox="0 0 24 24" xmlns="http://www.w3.org/2000/svg" aria-hidden="true" fill="currentColor"><path d="M22.313 18.75a1.125 1.125 0 0 1-1.125 1.125h-3.75a1.125 1.125 0 1 1 0-2.25h3.75a1.125 1.125 0 0 1 1.125 1.125m-2.063-7.722-8.437 4.92-8.433-4.92a1.125 1.125 0 0 0-1.13 1.944l9 5.25a1.13 1.13 0 0 0 1.134 0l9-5.25a1.125 1.125 0 1 0-1.134-1.944M1.688 7.5a1.13 1.13 0 0 1 .562-.972l9-5.25a1.13 1.13 0 0 1 1.134 0l9 5.25a1.126 1.126 0 0 1 0 1.944l-9 5.25a1.13 1.13 0 0 1-1.134 0l-9-5.25a1.13 1.13 0 0 1-.562-.972m3.358 0 6.767 3.948L18.579 7.5l-6.767-3.948zm7.704 12.403-.937.545-8.433-4.92a1.125 1.125 0 0 0-1.13 1.944l9 5.25a1.13 1.13 0 0 0 1.134 0l1.5-.876a1.126 1.126 0 0 0-1.134-1.943"/></svg>
